X:202
T: Baobao yao shuijiao
N: C1694
O: China, Jiangxi, Buoyang
S: IV, 264]
R: Xiaodiao, Yaoerge]
M: 2/4
L: 1/16
K: G
d4B4 | A8- | A4E2z2- | z6
DE | G2E2G2E2 | G2B2A4- | A4E2z2- | z8
d4d2B2 | B4B4 | A4A4- | A4E2z2
D4E2G2 | G3EGAB2 | A8- | A4E2z2
B4d4 | B3AA2EG | E3DD4- | D4
D2E2 | G2E2GAB2 | A8- | A4E2z2- | z8
d4d2B2 | B2A2G4 | B4A4- | A4G2E2
D4E2G2 | A4A2GA | E2D2D4- | D4
D2E2 | G2E2E2A2 | A4A2G2 | E4G4- | G4B2E2
D4E2A2 | A4A2EG | EDD6- | D8

